icons/home-4-fill.svg

<svg xmlns="http://www.w3.org/2000/svg" width="24" height="24" fill="none"><g clip-path="url(#a)"><g><path fill="#121212" d="M20 20C20 20.2653 19.8946 20.5196 19.7071 20.7071C19.5196 20.8947 19.2652 21 19 21H5C4.73478 21 4.48043 20.8947 4.29289 20.7071C4.10536 20.5196 4 20.2653 4 20V11H1L11.327 1.61204C11.5111 1.44452 11.7511 1.35168 12 1.35168C12.2489 1.35168 12.4889 1.44452 12.673 1.61204L23 11H20V20ZM11 13V19H13V13H11Z"/></g></g><defs><clipPath id="a"><rect width="24" height="24" fill="white"/></clipPath></defs></svg>

<svg width="24" height="24" fill="none" xmlns="http://www.w3.org/2000/svg"><g clip-path="url(#a)"><path d="M20 20a1 1 0 0 1-1 1H5a1 1 0 0 1-1-1v-9H1l10.327-9.388a1 1 0 0 1 1.346 0L23 11h-3v9Zm-9-7v6h2v-6h-2Z" /></g><defs><clipPath id="a"><path fill="#fff" d="M0 0h24v24H0z"/></clipPath></defs></svg>
